!!!!SEGMENT: pl-wtm--r-1498_stefani-jozef--na-skaly-ulomku.krn
!!!cenid: 18xx:2230
!!!COM: Stefani, Józef
!!!COM-rismid: pe30024097
!!!CDT: 1800/04/16-1876/03/19
!!!CNT: Polish
!!!OTL: Na skały ułomku
!!!PDT:
!!!AGN:
!!!SMS-siglum: PL-Wtm
!!!SMS-shelfmark: R 1498
!!!SMS-shelfwork: W
!!!SMS-variant:
!!!SMS-altvar:
!!!NIFC-rismid: 1001120229
!!!URL-scan: http://repozytorium.nifc.pl/skany/pl-wtm-nut--r1498
!!!ONB-nifc:
!!!key:
**kern	**kern	**dynam	**kern	**text
*part2	*part2	*part2	*part1	*part1
*staff3	*staff2	*	*staff1	*staff1
*Iforte	*Iforte	*	*Ivox	*
*I"Fortepian	*I"Fortepian	*	*I"[Voice]	*
*clefF4	*clefG2	*	*clefG2	*
*k[]	*k[]	*	*k[]	*
*C:	*C:	*	*C:	*
*M2/4	*M2/4	*	*M2/4	*
*all\right	*all\right	*	*all\right	*
*2\right	*2\right	*	*2\right	*
!	!	!	!LO:TX:a:i:t=Andantino.	!
!	!	!LO:DY:rj	!	!
16G 16GG\	16gg 16g\	f	16r	.
=1	=1	=1	=1	=1
8GL 8GG\	8ggL 8g\	.	2r	.
*Xtuplet	*	*	*	*
!	!LO:TUP:a:problem:klamra łukowa	!	!	!
24B\L	24b\L	.	.	.
24c\	24cc\	.	.	.
24d\JJ	24dd\JJ	.	.	.
8G\	8g/	.	.	.
16r	16r	.	.	.
16B 16BB\	16ff 16dd 16g\	.	.	.
=2	=2	=2	=2	=2
8B 8BB\	8ffL 8dd 8g\	.	2r	.
*clefG2	*	*	*	*
*tuplet	*	*	*	*
!LO:TUP:b:problem:klamra łukowa	!LO:TUP:a:problem:klamra łukowa	!	!	!
24d/LL	24dd\L	.	.	.
24e/	24ee\	.	.	.
24f/JJ	24ff\JJ	.	.	.
8B/	8b\	.	.	.
8a/	8aa\	.	.	.
=3	=3	=3	=3	=3
8a/L	8aa\L	.	2r	.
*	*Xtuplet	*	*	*
!LO:TUP:b:problem:klamra łukowa	!	!	!	!
24d/L	24dd\L	.	.	.
24e/	24ee\	.	.	.
24f/JJ	24ff\JJ	.	.	.
8A/L	8a/L	.	.	.
8A-X/J	8a-X/J	.	.	.
!!LO:LB:g=original
=4	=4	=4	=4	=4
8G/	8g/	.	4r	.
8r	16r	.	.	.
.	16cc\	.	.	.
*clefF4	*	*	*	*
4f 4d 4G\	(>8.bt\L	.	8r	.
.	.	.	8a/	Na
.	32a\LL	.	.	.
.	32b\JJJ)	.	.	.
=5	=5	=5	=5	=5
!	!	!LO:DY:rj	!	!
4C 4CC/	8r	p	4g/	ska-
.	8eL 8c 8G/	.	.	.
4r	8e 8c 8G/	.	8e/	-ły
.	8eJ 8c 8G/	.	8cc\	u-
=6	=6	=6	=6	=6
4C 4CC/	8r	.	4ee\	-łom-
*	*tremolo	*	*	*
.	8eL 8c 8G/	.	.	.
4r	8e 8c 8G/	.	8cc\	-ku
.	8eJ 8c 8G/	.	8g/	Gdzie
*	*Xtremolo	*	*	*
=7	=7	=7	=7	=7
4D/	8r	.	4f/	czy-
.	8f 8d 8A-X/	.	.	.
4BB/	8r	.	8f/	-stych
.	8f 8d 8G/	.	(<16a/LL	wód
.	.	.	16g/JJ)	.
=8	=8	=8	=8	=8
4C/	8r	.	4e/	spa-
.	8eL 8c 8G/	.	.	.
8GG/	8dJ 8B 8G/	.	8d/	-dek,
8r	8r	.	8d/	Jest
!!LO:LB:g=original
=9	=9	=9	=9	=9
8G 8GG\	8r	.	4d/	do-
8r	8d 8B/	.	.	.
8G 8GG\	8r	.	8.g/	-mek,
8r	8g 8d 8B/	.	.	.
.	.	.	16g/	w tym
=10	=10	=10	=10	=10
8G 8GG\	8r	.	4b/	dom-
8r	8b 8g 8d/	.	.	.
8G 8GG\	8r	.	8g/	-ku
8r	8g 8d 8B/	.	8g/	iest
=11	=11	=11	=11	=11
8D 8DD/	8r	.	4a/	bab-
8r	8a 8f#X 8d/	.	.	.
8D 8DD/	8r	.	8a/	-ka
8r	8f# 8d 8A/	.	8dd\	i
=12	=12	=12	=12	=12
8G 8GG\	8r	.	4b/	dzia-
8r	8gL 8d 8B/	.	.	.
8G 8GG\	8gJ 8d 8B/	.	8g/	-dek;
8r	8r	.	8g/	Jest
=13	=13	=13	=13	=13
!	!	!	!LO:TX:a:i:t=/&colon; słodko &colon;/	!
2GG 2GGG/	(<8fL 8B/	.	(>8.dd\L	a-
.	8G/J)	.	.	.
.	.	.	32ee\LL	.
.	.	.	32dd\JJJ)	.
*	*rep	*	*	*
.	(<8fL 8B/	.	8cc\	-nioł
.	8G/J)	.	8b\	dziew-
*	*Xrep	*	*	*
!!LO:LB:g=original
=14	=14	=14	=14	=14
2C 2CC/	(<8eL 8c/	.	4cc\	-czy-
.	8G/J)	.	.	.
*	*rep	*	*	*
.	(<8eL 8c/	.	8g/	-na
!	!	!	!LO:TX:a:i:t=/&colon; z gniewem&colon;/	!
.	8G/J)	f	8g/	I
*	*Xrep	*	*	*
=15	=15	=15	=15	=15
8AA-X 8AAA-X/	8cc 8f#X 8c/	.	8cc\	pies
8r	8r	.	8r	.
8r	8r	.	8cc\	jak
8A-X 8AA-X\	8f# 8d 8c/	.	8f#X/	ga-
=16	=16	=16	=16	=16
8r	8r	.	8a/	-dzi-
8G 8GG\	8g 8d 8B/	.	8g/	-na
16F#XLL 16FF#X/	(<32aLLL 32e-X/	fz	8r	.
.	32c/J)	.	.	.
!	!	!	!LO:TX:a:i:t=/&colon; pokornie &colon;/	!
16GJJ 16GG/	16gJJ 16d 16B/	.	.	.
8r	8r	p	8g/	O
=17	=17	=17	=17	=17
2A\	2f 2c/	.	4f/	Bo-
.	.	.	8cc\	-że
.	.	.	8cc\	wspa-
!!LO:PB:g=original
=18	=18	=18	=18	=18
2G\	2e 2c/	.	4cc\	-nia-
.	.	.	8e/	-ły,
.	.	.	8cc\	Racz
=19	=19	=19	=19	=19
2F#X\	2a 2d 2c/	.	4dd\	u-
.	.	.	8dd\	-chyl
.	.	.	8cc\	mi
=20	=20	=20	=20	=20
4G\	4.g 4.d 4.B/	.	4b/	świad-
8GG/	.	.	8g/	-ka
8r	8r	.	8g/	I
=21	=21	=21	=21	=21
!	!	!LO:DY:rj	!	!
8F 8FF/	8r	sf	4b\	do
8r	8b 8a-X 8d^</	.	.	.
8F 8FF/	8r	p	8cc\	swo-
8r	8b 8a- 8d/	.	8dd\	-iej
!!LO:LB:g=original
=22	=22	=22	=22	=22
8E-X 8EE-X/	8r	.	4cc\	chwa-
8r	8cc 8g 8c/	.	.	.
8C 8CC/	8r	.	8g/	-ły,
8r	8a 8e-X 8c/	.	8a/	Weź
=23	=23	=23	=23	=23
8D 8DD/	8r	.	4b-X/	bab-
8r	8b-X 8g 8d/	.	.	.
8D 8DD/	8r	.	8a/	-kę
8r	8f#X 8d 8c 8A/	.	8dd\	i
=24	=24	=24	=24	=24
8G 8GG\	8r	.	(<8.dd/L	dziad-
8r	8g 8d 8B-X/	.	.	.
.	.	.	16g/Jk)	.
8G 8GG\	8r	.	8g/	-ka;
8r	8g 8d 8B-/	.	8g/	Wnet
=25	=25	=25	=25	=25
!	!	!	!LO:TX:a:i:t=z gniewem	!
2F 2FF\	2a-X 2d 2Bn^</	.	4a-X/	struł-
.	.	.	8Bn/	-bym
.	.	.	8a-/	ga-
!!LO:LB:g=original
=26	=26	=26	=26	=26
4.E-X 4.EE-X/	4.e 4.c/	.	4g/	-dzi-
.	.	.	8c/	-nę.
!	!	!LO:DY:rj	!	!
8F#X 8FF#X/	8an 8e-X 8c/	f	8an/	I
=27	=27	=27	=27	=27
2r	2r	.	2r	.
=28	=28	=28	=28	=28
!	!	!LO:DY:rj	!LO:TX:a:i:t=/&colon; słodko &colon;/	!
8G 8GG\	8r	p	(<8.g/L	wzioł-
8r	8g 8e 8c/	.	.	.
.	.	.	16ee/Jk)	.
8G 8GG\	8r	.	8.ee\	-bym
8r	8b 8g 8f 8d/	.	.	.
.	.	.	16dd\	dziew-
=29	=29	=29	=29	=29
4G 4GG\	8r	.	8.b\L	-czy-
.	8bL 8g 8f 8d/	.	.	.
.	.	.	16cc\Jk	-ne!
8G 8C\	8ccJ 8g 8e/	.	8cc\	.
*clefG2	*	*	*	*
!	!	!LO:DY:rj	!	!
8f#X/	8aa 8ee-X 8cc\	f	8r	.
!!LO:LB:g=original
=30	=30	=30	=30	=30
4g/	8ggL 8een 8cc'>\	p	2r	.
.	(>8cccJ 8ee 8cc\	<	.	.
4g 4G/	8eeeL 8gg 8ee\	.	.	.
.	8dddJ 8ff 8dd\)	[[	.	.
=31	=31	=31	=31	=31
4g 4G/	(>4bb 4ff 4dd\	>	2r	.
8g 8c/	8ccc 8ee\)	.	.	.
8r	8r	]	.	.
==	==	==	==	==
*-	*-	*-	*-	*-
!!!system-decoration: s1{(s2,s3)}
!!!RDF**kern: > = above
!!!RDF**kern: < = below
!!!EED: Antoni Szymański
!!!EST: 2021-06-05
!!!AIN: 1 forte 1 vox
!!!ENC: Andrzej Gręziak
!!!END: 2021-05-20
